;Generated with Cura_SteamEngine 15.01
; Default start code
G28 ; Home extruder
G1 Z15 F100
M107 ; Turn off fan
G90 ; Absolute positioning
M82 ; Extruder in absolute mode
M190 S50
; Activate all used extruder
M104 T0 S210
G92 E0 ; Reset extruder position
; Wait for all used extruders to reach temperature
M109 T0 S210
;Layer count: 230
;LAYER:0
M107
G0 F9000 X71.236 Y82.128 Z0.300
;TYPE:SKIRT
G1 F1800 X72.623 Y81.260 E0.08163
G1 X74.040 Y80.706 E0.15754
G1 X75.249 Y80.601 E0.21808
G1 X119.697 Y80.600 E2.43560
G1 X124.753 Y80.601 E2.68785
G1 X125.942 Y80.705 E2.74739
G1 X127.443 Y81.280 E2.82758
G1 X128.881 Y82.242 E2.91390
G1 X129.978 Y83.619 E3.00173
G1 X130.736 Y85.251 E3.09151
G1 X130.898 Y86.668 E3.16266
G1 X130.899 Y110.451 E4.34920
G1 X130.898 Y113.335 E4.49308
G1 X130.735 Y114.749 E4.56410
G1 X129.978 Y116.380 E4.65380
G1 X128.878 Y117.760 E4.74185
G1 X127.450 Y118.713 E4.82750
G1 X125.713 Y119.387 E4.92045
G1 X80.304 Y119.399 E7.18592
G1 X75.249 Y119.398 E7.43811
G1 X74.022 Y119.292 E7.49956
G1 X73.245 Y118.983 E7.54127
G1 X72.628 Y118.767 E7.57389
G1 X71.098 Y117.743 E7.66574
G1 X70.497 Y116.977 E7.71431
G1 X70.071 Y116.454 E7.74797
G1 X69.723 Y115.742 E7.78750
G1 X69.267 Y114.740 E7.84243
G1 X69.102 Y113.360 E7.91177
G1 X69.100 Y89.549 E9.09970
G1 X69.101 Y86.667 E9.24349
G1 X69.263 Y85.251 E9.31459
G1 X70.043 Y83.571 E9.40700
G1 X71.236 Y82.128 E9.50041
G0 F9000 X71.503 Y82.432
G1 F1800 X72.803 Y81.619 E9.57691
G1 X74.132 Y81.099 E9.64810
G1 X75.267 Y81.001 E9.70494
G1 X119.697 Y81.000 E11.92156
G1 X124.736 Y81.001 E12.17296
G1 X125.851 Y81.098 E12.22880
G1 X127.258 Y81.638 E12.30398
G1 X128.607 Y82.540 E12.38494
G1 X129.635 Y83.830 E12.46724
G1 X130.345 Y85.361 E12.55144
G1 X130.498 Y86.691 E12.61823
G1 X130.499 Y110.451 E13.80362
G1 X130.498 Y113.312 E13.94635
G1 X130.345 Y114.640 E14.01305
G1 X129.635 Y116.169 E14.09715
G1 X128.604 Y117.462 E14.17966
G1 X127.264 Y118.356 E14.26002
G1 X125.638 Y118.987 E14.34704
G1 X80.304 Y118.999 E16.60876
G1 X75.266 Y118.998 E16.86011
G1 X74.115 Y118.898 E16.91775
G1 X73.403 Y118.615 E16.95597
G1 X72.808 Y118.406 E16.98743
G1 X71.373 Y117.446 E17.07357
G1 X70.814 Y116.733 E17.11877
G1 X70.410 Y116.237 E17.15069
G1 X70.085 Y115.571 E17.18766
G1 X69.657 Y114.631 E17.23919
G1 X69.502 Y113.336 E17.30426
G1 X69.500 Y89.549 E18.49099
G1 X69.501 Y86.690 E18.63363
G1 X69.654 Y85.361 E18.70037
G1 X70.384 Y83.786 E18.78698
G1 X71.503 Y82.432 E18.87461
G0 F9000 X71.770 Y82.737
G1 F1800 X72.984 Y81.978 E18.94604
G1 X74.224 Y81.493 E19.01247
G1 X75.284 Y81.401 E19.06555
G1 X119.696 Y81.400 E21.28128
G1 X124.718 Y81.401 E21.53183
G1 X125.760 Y81.492 E21.58401
G1 X127.073 Y81.995 E21.65416
G1 X128.333 Y82.838 E21.72979
G1 X129.292 Y84.042 E21.80659
G1 X129.955 Y85.471 E21.88518
G1 X130.098 Y86.714 E21.94760
G1 X130.099 Y110.451 E23.13184
G1 X130.098 Y113.288 E23.27338
G1 X129.955 Y114.530 E23.33576
G1 X129.292 Y115.957 E23.41426
G1 X128.330 Y117.164 E23.49126
G1 X127.079 Y117.999 E23.56630
G1 X125.563 Y118.587 E23.64742
G1 X80.304 Y118.599 E25.90540
G1 X75.283 Y118.598 E26.15590
G1 X74.208 Y118.505 E26.20974
G1 X73.523 Y118.232 E26.24652
G1 X72.988 Y118.045 E26.27480
G1 X71.649 Y117.149 E26.35518
G1 X71.133 Y116.490 E26.39694
G1 X70.749 Y116.020 E26.42722
G1 X70.447 Y115.400 E26.46162
G1 X70.047 Y114.521 E26.50980
G1 X69.902 Y113.312 E26.57055
G1 X69.900 Y89.549 E27.75609
G1 X69.901 Y86.713 E27.89758
G1 X70.044 Y85.471 E27.95995
G1 X70.726 Y84.001 E28.04080
G1 X71.770 Y82.737 E28.12259
G0 F9000 X72.037 Y83.042
G1 F1800 X73.164 Y82.337 E28.18891
G1 X74.315 Y81.886 E28.25059
G1 X75.301 Y81.801 E28.29996
G1 X119.696 Y81.800 E30.51484
G1 X124.701 Y81.801 E30.76454
G1 X125.670 Y81.886 E30.81307
G1 X126.888 Y82.353 E30.87815
G1 X128.059 Y83.136 E30.94842
G1 X128.950 Y84.254 E31.01975
G1 X129.565 Y85.581 E31.09272
G1 X129.698 Y86.737 E31.15077
G1 X129.699 Y110.451 E32.33387
G1 X129.698 Y113.265 E32.47426
G1 X129.565 Y114.420 E32.53226
G1 X128.950 Y115.745 E32.60514
G1 X128.057 Y116.866 E32.67664
G1 X126.893 Y117.641 E32.74641
G1 X125.488 Y118.187 E32.82161
G1 X80.304 Y118.199 E35.07585
G1 X75.301 Y118.198 E35.32545
G1 X74.302 Y118.111 E35.37548
G1 X73.686 Y117.866 E35.40855
G1 X73.168 Y117.685 E35.43593
G1 X71.924 Y116.852 E35.51062
G1 X71.449 Y116.246 E35.54904
G1 X71.088 Y115.803 E35.57755
G1 X70.809 Y115.230 E35.60934
G1 X70.437 Y114.412 E35.65418
G1 X70.302 Y113.289 E35.71061
G1 X70.300 Y89.549 E36.89500
G1 X70.301 Y86.736 E37.03534
G1 X70.434 Y85.581 E37.09334
G1 X71.067 Y84.216 E37.16841
G1 X72.037 Y83.042 E37.24439
G0 F9000 X72.304 Y83.347
G1 F1800 X73.345 Y82.695 E37.30567
G1 X74.407 Y82.280 E37.36255
G1 X75.318 Y82.201 E37.40817
G1 X124.683 Y82.201 E39.87100
G1 X125.579 Y82.279 E39.91587
G1 X126.703 Y82.710 E39.97593
G1 X127.785 Y83.434 E40.04088
G1 X128.607 Y84.466 E40.10671
G1 X129.175 Y85.691 E40.17407
G1 X129.298 Y86.760 E40.22776
G1 X129.299 Y110.451 E41.40971
G1 X129.298 Y113.242 E41.54895
G1 X129.175 Y114.310 E41.60258
G1 X128.607 Y115.533 E41.66986
G1 X127.783 Y116.568 E41.73586
G1 X126.708 Y117.284 E41.80030
G1 X125.413 Y117.787 E41.86961
G1 X80.304 Y117.799 E44.12011
G1 X75.318 Y117.798 E44.36886
G1 X74.395 Y117.718 E44.41508
G1 X73.809 Y117.485 E44.44654
G1 X73.349 Y117.324 E44.47086
G1 X72.200 Y116.555 E44.53984
G1 X71.728 Y115.954 E44.57796
G1 X71.428 Y115.586 E44.60165
G1 X71.171 Y115.059 E44.63090
G1 X70.826 Y114.303 E44.67236
G1 X70.702 Y113.265 E44.72451
G1 X70.700 Y89.549 E45.90771
G1 X70.701 Y86.759 E46.04690
G1 X70.824 Y85.691 E46.10054
G1 X71.408 Y84.431 E46.16982
G1 X72.304 Y83.347 E46.23999
G0 F9000 X72.572 Y83.651
G1 F1800 X73.525 Y83.054 E46.29609
G1 X74.499 Y82.673 E46.34827
G1 X75.336 Y82.601 E46.39018
G1 X124.666 Y82.601 E48.85127
G1 X125.488 Y82.673 E48.89243
G1 X126.518 Y83.068 E48.94747
G1 X127.511 Y83.732 E49.00707
G1 X128.264 Y84.678 E49.06739
G1 X128.785 Y85.800 E49.12911
G1 X128.898 Y86.783 E49.17847
G1 X128.899 Y110.451 E50.35927
G1 X128.898 Y113.219 E50.49737
G1 X128.785 Y114.200 E50.54663
G1 X128.264 Y115.321 E50.60831
G1 X127.509 Y116.269 E50.66877
G1 X126.522 Y116.927 E50.72795
G1 X125.338 Y117.387 E50.79132
G1 X80.304 Y117.399 E53.03808
G1 X75.335 Y117.398 E53.28598
G1 X74.488 Y117.325 E53.32839
G1 X73.947 Y117.109 E53.35746
G1 X73.529 Y116.963 E53.37955
G1 X72.475 Y116.258 E53.44281
G1 X72.059 Y115.727 E53.47646
G1 X71.767 Y115.369 E53.49951
G1 X71.533 Y114.889 E53.52615
G1 X71.216 Y114.194 E53.56426
G1 X71.102 Y113.241 E53.61215
G1 X71.100 Y89.549 E54.79415
G1 X71.101 Y86.782 E54.93219
G1 X71.214 Y85.800 E54.98151
G1 X71.749 Y84.647 E55.04492
G1 X72.572 Y83.651 E55.10938
G0 F9000 X72.839 Y83.956
G1 F1800 X73.706 Y83.413 E55.16042
G1 X74.591 Y83.067 E55.20783
G1 X75.353 Y83.001 E55.24599
G1 X124.648 Y83.001 E57.70532
G1 X125.397 Y83.066 E57.74283
G1 X126.332 Y83.425 E57.79280
G1 X127.237 Y84.030 E57.84711
G1 X127.922 Y84.890 E57.90196
G1 X128.395 Y85.910 E57.95806
G1 X128.498 Y86.806 E58.00305
G1 X128.499 Y110.451 E59.18271
G1 X128.498 Y113.196 E59.31965
G1 X128.395 Y114.090 E59.36455
G1 X127.922 Y115.109 E59.42060
G1 X127.235 Y115.971 E59.47559
G1 X126.337 Y116.570 E59.52945
G1 X125.263 Y116.987 E59.58692
G1 X80.304 Y116.999 E61.82994
G1 X75.353 Y116.998 E62.07694
G1 X74.581 Y116.931 E62.11560
G1 X74.087 Y116.735 E62.14212
G1 X73.709 Y116.602 E62.16211
G1 X72.751 Y115.961 E62.21962
G1 X72.398 Y115.511 E62.24815
G1 X72.106 Y115.152 E62.27124
G1 X71.894 Y114.718 E62.29534
G1 X71.606 Y114.084 E62.33008
G1 X71.502 Y113.217 E62.37364
G1 X71.500 Y89.549 E63.55444
G1 X71.501 Y86.805 E63.69134
G1 X71.604 Y85.910 E63.73629
G1 X72.090 Y84.862 E63.79392
G1 X72.839 Y83.956 E63.85257
G0 F9000 X73.106 Y84.261
G1 F1800 X73.886 Y83.772 E63.89850
G1 X74.683 Y83.461 E63.94118
G1 X75.370 Y83.401 E63.97559
G1 X124.631 Y83.401 E66.43323
G1 X125.307 Y83.460 E66.46708
G1 X126.147 Y83.782 E66.51196
G1 X126.963 Y84.328 E66.56095
G1 X127.579 Y85.101 E66.61026
G1 X128.005 Y86.020 E66.66079
G1 X128.098 Y86.829 E66.70142
G1 X128.099 Y110.451 E67.87993
G1 X128.098 Y113.173 E68.01573
G1 X128.005 Y113.980 E68.05626
G1 X127.579 Y114.898 E68.10675
G1 X126.961 Y115.673 E68.15620
G1 X126.151 Y116.213 E68.20477
G1 X125.188 Y116.587 E68.25631
G1 X80.304 Y116.599 E70.49558
G1 X75.370 Y116.598 E70.74174
G1 X74.674 Y116.538 E70.77659
G1 X74.246 Y116.367 E70.79958
G1 X73.889 Y116.242 E70.81846
G1 X73.026 Y115.664 E70.87028
G1 X72.708 Y115.258 E70.89600
G1 X72.446 Y114.936 E70.91672
G1 X72.256 Y114.547 E70.93831
G1 X71.996 Y113.975 E70.96966
G1 X71.902 Y113.193 E71.00896
G1 X71.900 Y89.550 E72.18851
G1 X71.901 Y86.828 E72.32431
G1 X71.994 Y86.020 E72.36489
G1 X72.431 Y85.077 E72.41674
G1 X73.106 Y84.261 E72.46957
G0 F9000 X73.373 Y84.565
G1 F1800 X74.067 Y84.131 E72.51041
G1 X74.775 Y83.854 E72.54834
G1 X75.388 Y83.801 E72.57904
G1 X124.614 Y83.801 E75.03493
G1 X125.216 Y83.854 E75.06508
G1 X125.962 Y84.140 E75.10494
G1 X126.688 Y84.626 E75.14853
G1 X127.236 Y85.313 E75.19237
G1 X127.615 Y86.130 E75.23730
G1 X127.698 Y86.851 E75.27351
G1 X127.699 Y110.450 E76.45087
G1 X127.698 Y113.150 E76.58558
G1 X127.615 Y113.870 E76.62173
G1 X127.236 Y114.686 E76.66662
G1 X126.687 Y115.375 E76.71057
G1 X125.966 Y115.856 E76.75381
G1 X125.113 Y116.187 E76.79946
G1 X80.304 Y116.199 E79.03499
G1 X75.387 Y116.198 E79.28030
G1 X74.767 Y116.144 E79.31135
G1 X74.368 Y115.986 E79.33276
G1 X74.069 Y115.881 E79.34857
G1 X73.302 Y115.367 E79.39464
G1 X73.018 Y115.005 E79.41759
G1 X72.785 Y114.719 E79.43600
G1 X72.618 Y114.377 E79.45498
G1 X72.385 Y113.866 E79.48300
G1 X72.302 Y113.169 E79.51802
G1 X72.300 Y89.550 E80.69638
G1 X72.301 Y86.851 E80.83103
G1 X72.384 Y86.130 E80.86724
G1 X72.773 Y85.292 E80.91333
G1 X73.373 Y84.565 E80.96036
G0 F9000 X74.247 Y84.490
G1 F1800 X74.867 Y84.248 E80.99357
G1 X75.405 Y84.201 E81.02051
G1 X124.596 Y84.201 E83.47466
G1 X125.125 Y84.247 E83.50115
G1 X125.777 Y84.497 E83.53599
G1 X126.414 Y84.924 E83.57425
G1 X126.894 Y85.525 E83.61262
G1 X127.225 Y86.239 E83.65188
G1 X127.298 Y86.874 E83.68377
G1 X127.298 Y113.126 E84.99349
G1 X127.225 Y113.760 E85.02533
G1 X126.894 Y114.474 E85.06459
G1 X126.413 Y115.077 E85.10307
G1 X125.780 Y115.499 E85.14103
G1 X125.038 Y115.787 E85.18074
G1 X80.304 Y115.799 E87.41253
G1 X75.405 Y115.798 E87.65694
G1 X74.861 Y115.751 E87.68418
G1 X74.507 Y115.610 E87.70319
G1 X74.249 Y115.520 E87.71682
G1 X73.577 Y115.070 E87.75717
G1 X73.328 Y114.753 E87.77728
G1 X73.124 Y114.502 E87.79342
G1 X72.980 Y114.206 E87.80984
G1 X72.775 Y113.757 E87.83447
G1 X72.702 Y113.145 E87.86522
G1 X72.700 Y89.550 E89.04238
G1 X72.701 Y86.874 E89.17588
G1 X72.774 Y86.239 E89.20777
G1 X73.114 Y85.507 E89.24804
G1 X73.640 Y84.870 E89.28925
G1 X74.247 Y84.490 E89.32498
G0 F9000 X74.428 Y84.849
G1 F1800 X74.959 Y84.641 E89.35343
G1 X75.422 Y84.601 E89.37662
G1 X124.579 Y84.601 E91.82907
G1 X125.034 Y84.641 E91.85186
G1 X125.592 Y84.855 E91.88167
G1 X126.140 Y85.221 E91.91455
G1 X126.551 Y85.737 E91.94746
G1 X126.835 Y86.349 E91.98112
G1 X126.898 Y86.897 E92.00864
G1 X126.898 Y113.103 E93.31606
G1 X126.835 Y113.651 E93.34358
G1 X126.551 Y114.262 E93.37720
G1 X126.139 Y114.779 E93.41018
G1 X125.595 Y115.142 E93.44281
G1 X124.963 Y115.387 E93.47663
G1 X75.422 Y115.398 E95.94824
G1 X74.954 Y115.357 E95.97167
G1 X74.666 Y115.242 E95.98715
G1 X74.429 Y115.159 E95.99967
G1 X73.852 Y114.773 E96.03431
G1 X73.617 Y114.473 E96.05332
G1 X73.463 Y114.285 E96.06544
G1 X73.342 Y114.036 E96.07926
G1 X73.165 Y113.648 E96.10053
G1 X73.102 Y113.121 E96.12701
G1 X73.101 Y86.897 E97.43533
G1 X73.164 Y86.349 E97.46285
G1 X73.455 Y85.722 E97.49734
G1 X73.907 Y85.175 E97.53274
G1 X74.428 Y84.849 E97.56340
G0 F9000 X74.608 Y85.208
G1 F1800 X75.051 Y85.035 E97.58713
G1 X75.439 Y85.001 E97.60656
G1 X124.561 Y85.001 E100.05727
G1 X124.944 Y85.034 E100.07645
G1 X125.407 Y85.212 E100.10119
G1 X125.866 Y85.519 E100.12874
G1 X126.208 Y85.949 E100.15615
G1 X126.445 Y86.459 E100.18421
G1 X126.498 Y86.920 E100.20736
G1 X126.498 Y113.080 E101.51249
G1 X126.445 Y113.541 E101.53564
G1 X126.208 Y114.050 E101.56365
G1 X125.866 Y114.481 E101.59110
G1 X125.409 Y114.785 E101.61849
G1 X124.888 Y114.987 E101.64636
G1 X75.440 Y114.998 E104.11333
G1 X75.047 Y114.964 E104.13301
G1 X74.774 Y114.856 E104.14766
G1 X74.610 Y114.799 E104.15632
G1 X74.128 Y114.476 E104.18527
G1 X73.932 Y114.227 E104.20108
G1 X73.803 Y114.068 E104.21129
G1 X73.704 Y113.865 E104.22256
G1 X73.555 Y113.538 E104.24049
G1 X73.502 Y113.098 E104.26260
G1 X73.501 Y86.920 E105.56863
G1 X73.554 Y86.459 E105.59178
G1 X73.796 Y85.937 E105.62048
G1 X74.174 Y85.480 E105.65007
G1 X74.608 Y85.208 E105.67562
G0 F9000 X74.789 Y85.567
G1 F1800 X75.143 Y85.428 E105.69460
G1 X75.457 Y85.401 E105.71032
G1 X124.544 Y85.401 E108.15928
G1 X124.853 Y85.428 E108.17476
G1 X125.222 Y85.569 E108.19446
G1 X125.592 Y85.817 E108.21669
G1 X125.866 Y86.160 E108.23859
G1 X126.055 Y86.569 E108.26107
G1 X126.098 Y86.943 E108.27985
G1 X126.098 Y113.057 E109.58268
G1 X126.055 Y113.431 E109.60146
G1 X125.866 Y113.839 E109.62390
G1 X125.592 Y114.182 E109.64580
G1 X125.224 Y114.428 E109.66788
G1 X124.813 Y114.587 E109.68987
G1 X75.457 Y114.598 E112.15225
G1 X75.140 Y114.571 E112.16812
G1 X74.930 Y114.487 E112.17941
G1 X74.790 Y114.438 E112.18681
G1 X74.403 Y114.179 E112.21004
G1 X74.247 Y113.980 E112.22265
G1 X74.142 Y113.851 E112.23095
G1 X74.065 Y113.694 E112.23968
G1 X73.945 Y113.429 E112.25419
G1 X73.902 Y113.074 E112.27203
G1 X73.901 Y86.943 E113.57571
G1 X73.944 Y86.569 E113.59449
G1 X74.137 Y86.152 E113.61742
G1 X74.441 Y85.784 E113.64123
G1 X74.789 Y85.567 E113.66169
G0 F9000 X75.474 Y85.801
G1 F1800 X124.526 Y85.801 E116.10891
G1 X124.762 Y85.822 E116.12073
G1 X125.037 Y85.927 E116.13541
G1 X125.318 Y86.115 E116.15228
G1 X125.523 Y86.372 E116.16868
G1 X125.665 Y86.678 E116.18551
G1 X125.698 Y86.966 E116.19997
G1 X125.698 Y113.034 E117.50051
G1 X125.665 Y113.321 E117.51492
G1 X125.523 Y113.627 E117.53175
G1 X125.318 Y113.884 E117.54816
G1 X125.038 Y114.071 E117.56495
G1 X124.738 Y114.187 E117.58100
G1 X75.474 Y114.198 E120.03879
G1 X75.233 Y114.177 E120.05086
G1 X75.070 Y114.112 E120.05962
G1 X74.970 Y114.077 E120.06490
G1 X74.679 Y113.882 E120.08238
G1 X74.562 Y113.733 E120.09183
G1 X74.481 Y113.634 E120.09821
G1 X74.427 Y113.524 E120.10432
G1 X74.334 Y113.320 E120.11551
G1 X74.302 Y113.050 E120.12907
G1 X74.301 Y86.966 E121.43041
G1 X74.334 Y86.678 E121.44487
G1 X74.478 Y86.367 E121.46197
G1 X74.708 Y86.089 E121.47997
G1 X74.969 Y85.926 E121.49532
G1 X75.235 Y85.822 E121.50957
G1 X75.474 Y85.801 E121.52154
G0 F9000 X75.491 Y86.201
G1 F1800 X124.509 Y86.201 E123.96706
G1 X124.671 Y86.215 E123.97517
G1 X124.852 Y86.284 E123.98484
G1 X125.044 Y86.413 E123.99638
G1 X125.180 Y86.584 E124.00728
G1 X125.275 Y86.788 E124.01850
G1 X125.298 Y86.989 E124.02860
G1 X125.298 Y113.011 E125.32684
G1 X125.275 Y113.211 E125.33688
G1 X125.180 Y113.415 E125.34811
G1 X125.044 Y113.586 E125.35901
G1 X124.853 Y113.714 E125.37048
G1 X124.663 Y113.787 E125.38064
G1 X75.491 Y113.798 E127.83384
G1 X75.326 Y113.784 E127.84210
G1 X75.206 Y113.736 E127.84855
G1 X75.150 Y113.716 E127.85152
G1 X74.954 Y113.585 E127.86328
G1 X74.877 Y113.486 E127.86953
G1 X74.820 Y113.417 E127.87400
G1 X74.789 Y113.353 E127.87755
G1 X74.724 Y113.211 E127.88534
G1 X74.702 Y113.026 E127.89463
G1 X74.701 Y86.989 E129.19362
G1 X74.724 Y86.788 E129.20372
G1 X74.819 Y86.582 E129.21503
G1 X74.975 Y86.394 E129.22722
G1 X75.150 Y86.285 E129.23751
G1 X75.327 Y86.215 E129.24700
G1 X75.491 Y86.201 E129.25522
G0 F9000 X84.700 Y99.200
G1 F1800 X84.700 Y108.800 E129.73416
G1 X115.300 Y108.800 E131.26080
G1 X115.300 Y99.200 E131.73975
G1 X84.700 Y99.200 E133.26639
G0 F9000 X85.100 Y99.600
G1 F1800 X85.100 Y108.400 E133.70542
G1 X114.900 Y108.400 E135.19215
G1 X114.900 Y99.600 E135.63118
G1 X85.100 Y99.600 E137.11791
G0 F9000 X85.500 Y100.000
G1 F1800 X85.500 Y108.000 E137.51703
G1 X114.500 Y108.000 E138.96385
G1 X114.500 Y100.000 E139.36297
G1 X85.500 Y100.000 E140.80979
G0 F9000 X85.900 Y100.400
G1 F1800 X85.900 Y107.600 E141.16900
G1 X114.100 Y107.600 E142.57590
G1 X114.100 Y100.400 E142.93511
