;Generated with Cura_SteamEngine 15.01
; Default start code
G28 ; Home extruder
G1 Z15 F100
M107 ; Turn off fan
G90 ; Absolute positioning
M82 ; Extruder in absolute mode
M190 S60
; Activate all used extruder
M104 T0 S240
G92 E0 ; Reset extruder position
; Wait for all used extruders to reach temperature
M109 T0 S240
;Layer count: 225
;LAYER:0
M107
G0 F9000 X72.236 Y82.128 Z0.300
;TYPE:SKIRT
G1 F1800 X73.623 Y81.260 E0.08163
G1 X75.040 Y80.706 E0.15754
G1 X76.249 Y80.601 E0.21808
G1 X118.893 Y80.600 E2.34560
G1 X123.753 Y80.601 E2.58806
G1 X124.942 Y80.705 E2.64761
G1 X126.443 Y81.280 E2.72780
G1 X127.881 Y82.242 E2.81412
G1 X128.978 Y83.619 E2.90195
G1 X129.736 Y85.251 E2.99173
G1 X129.898 Y86.668 E3.06288
G1 X129.899 Y110.451 E4.24942
G1 X129.898 Y113.335 E4.39330
G1 X129.735 Y114.749 E4.46432
G1 X128.978 Y116.380 E4.55402
G1 X127.878 Y117.760 E4.64207
G1 X126.450 Y118.713 E4.72772
G1 X124.713 Y119.387 E4.82067
G1 X81.108 Y119.399 E6.99614
G1 X76.249 Y119.398 E7.23855
G1 X75.022 Y119.292 E7.30000
G1 X74.245 Y118.983 E7.34171
G1 X73.628 Y118.767 E7.37433
G1 X72.098 Y117.743 E7.46618
G1 X71.497 Y116.977 E7.51475
G1 X71.071 Y116.454 E7.54841
G1 X70.723 Y115.742 E7.58794
G1 X70.267 Y114.740 E7.64287
G1 X70.102 Y113.360 E7.71221
G1 X70.100 Y89.549 E8.90014
G1 X70.101 Y86.667 E9.04393
G1 X70.263 Y85.251 E9.11503
G1 X71.043 Y83.571 E9.20744
G1 X72.236 Y82.128 E9.30085
G0 F9000 X72.503 Y82.432
G1 F1800 X73.803 Y81.619 E9.37734
G1 X75.132 Y81.099 E9.44854
G1 X76.267 Y81.001 E9.50538
G1 X118.893 Y81.000 E11.63200
G1 X123.736 Y81.001 E11.87362
G1 X124.851 Y81.098 E11.92946
G1 X126.258 Y81.638 E12.00464
G1 X127.607 Y82.540 E12.08560
G1 X128.635 Y83.830 E12.16790
G1 X129.345 Y85.361 E12.25209
G1 X129.498 Y86.691 E12.31889
G1 X129.499 Y110.451 E13.50428
G1 X129.498 Y113.312 E13.64701
G1 X129.345 Y114.640 E13.71370
G1 X128.635 Y116.169 E13.79781
G1 X127.604 Y117.462 E13.88031
G1 X126.264 Y118.356 E13.96068
G1 X124.638 Y118.987 E14.04770
G1 X81.108 Y118.999 E16.21942
G1 X76.266 Y118.998 E16.46099
G1 X75.115 Y118.898 E16.51863
G1 X74.403 Y118.615 E16.55685
G1 X73.808 Y118.406 E16.58831
G1 X72.373 Y117.446 E16.67445
G1 X71.814 Y116.733 E16.71965
G1 X71.410 Y116.237 E16.75156
G1 X71.085 Y115.571 E16.78854
G1 X70.657 Y114.631 E16.84007
G1 X70.502 Y113.336 E16.90513
G1 X70.500 Y89.549 E18.09187
G1 X70.501 Y86.690 E18.23451
G1 X70.654 Y85.361 E18.30125
G1 X71.384 Y83.786 E18.38786
G1 X72.503 Y82.432 E18.47549
G0 F9000 X72.770 Y82.737
G1 F1800 X73.984 Y81.978 E18.54692
G1 X75.224 Y81.493 E18.61335
G1 X76.284 Y81.401 E18.66643
G1 X118.892 Y81.400 E20.79215
G1 X123.718 Y81.401 E21.03292
G1 X124.760 Y81.492 E21.08511
G1 X126.073 Y81.995 E21.15526
G1 X127.333 Y82.838 E21.23089
G1 X128.292 Y84.042 E21.30768
G1 X128.955 Y85.471 E21.38628
G1 X129.098 Y86.714 E21.44870
G1 X129.099 Y110.451 E22.63294
G1 X129.098 Y113.288 E22.77448
G1 X128.955 Y114.530 E22.83685
G1 X128.292 Y115.957 E22.91536
G1 X127.330 Y117.164 E22.99236
G1 X126.079 Y117.999 E23.06740
G1 X124.563 Y118.587 E23.14852
G1 X81.108 Y118.599 E25.31650
G1 X76.283 Y118.598 E25.55722
G1 X75.208 Y118.505 E25.61105
G1 X74.523 Y118.232 E25.64784
G1 X73.988 Y118.045 E25.67612
G1 X72.649 Y117.149 E25.75650
G1 X72.133 Y116.490 E25.79825
G1 X71.749 Y116.020 E25.82853
G1 X71.447 Y115.400 E25.86294
G1 X71.047 Y114.521 E25.91112
G1 X70.902 Y113.312 E25.97187
G1 X70.900 Y89.549 E27.15741
G1 X70.901 Y86.713 E27.29890
G1 X71.044 Y85.471 E27.36127
G1 X71.726 Y84.001 E27.44212
G1 X72.770 Y82.737 E27.52391
G0 F9000 X73.037 Y83.042
G1 F1800 X74.164 Y82.337 E27.59023
G1 X75.315 Y81.886 E27.65190
G1 X76.301 Y81.801 E27.70128
G1 X118.892 Y81.800 E29.82615
G1 X123.701 Y81.801 E30.06607
G1 X124.670 Y81.886 E30.11460
G1 X125.888 Y82.353 E30.17968
G1 X127.059 Y83.136 E30.24996
G1 X127.950 Y84.254 E30.32129
G1 X128.565 Y85.581 E30.39425
G1 X128.698 Y86.737 E30.45231
G1 X128.699 Y110.451 E31.63540
G1 X128.698 Y113.265 E31.77580
G1 X128.565 Y114.420 E31.83380
G1 X127.950 Y115.745 E31.90668
G1 X127.057 Y116.866 E31.97818
G1 X125.893 Y117.641 E32.04795
G1 X124.488 Y118.187 E32.12315
G1 X81.108 Y118.199 E34.28739
G1 X76.301 Y118.198 E34.52721
G1 X75.302 Y118.111 E34.57724
G1 X74.686 Y117.866 E34.61031
G1 X74.168 Y117.685 E34.63769
G1 X72.924 Y116.852 E34.71238
G1 X72.449 Y116.246 E34.75079
G1 X72.088 Y115.803 E34.77930
G1 X71.809 Y115.230 E34.81110
G1 X71.437 Y114.412 E34.85593
G1 X71.302 Y113.289 E34.91236
G1 X71.300 Y89.549 E36.09676
G1 X71.301 Y86.736 E36.23710
G1 X71.434 Y85.581 E36.29510
G1 X72.067 Y84.216 E36.37017
G1 X73.037 Y83.042 E36.44614
G0 F9000 X73.304 Y83.347
G1 F1800 X74.345 Y82.695 E36.50743
G1 X75.407 Y82.280 E36.56431
G1 X76.318 Y82.201 E36.60993
G1 X118.892 Y82.200 E38.73396
G1 X123.683 Y82.201 E38.97298
G1 X124.579 Y82.279 E39.01785
G1 X125.703 Y82.710 E39.07791
G1 X126.785 Y83.434 E39.14286
G1 X127.607 Y84.466 E39.20868
G1 X128.175 Y85.691 E39.27605
G1 X128.298 Y86.760 E39.32973
G1 X128.299 Y110.451 E40.51168
G1 X128.298 Y113.242 E40.65093
G1 X128.175 Y114.310 E40.70456
G1 X127.607 Y115.533 E40.77184
G1 X126.783 Y116.568 E40.83784
G1 X125.708 Y117.284 E40.90228
G1 X124.413 Y117.787 E40.97159
G1 X81.108 Y117.799 E43.13208
G1 X76.318 Y117.798 E43.37106
G1 X75.395 Y117.718 E43.41728
G1 X74.809 Y117.485 E43.44874
G1 X74.349 Y117.324 E43.47305
G1 X73.200 Y116.555 E43.54203
G1 X72.728 Y115.954 E43.58016
G1 X72.428 Y115.586 E43.60385
G1 X72.171 Y115.059 E43.63310
G1 X71.826 Y114.303 E43.67456
G1 X71.702 Y113.265 E43.72671
G1 X71.700 Y89.549 E44.90991
G1 X71.701 Y86.759 E45.04910
G1 X71.824 Y85.691 E45.10273
G1 X72.408 Y84.431 E45.17202
G1 X73.304 Y83.347 E45.24218
G0 F9000 X73.572 Y83.651
G1 F1800 X74.525 Y83.054 E45.29829
G1 X75.499 Y82.673 E45.35047
G1 X76.336 Y82.601 E45.39238
G1 X123.666 Y82.601 E47.75368
G1 X124.488 Y82.673 E47.79485
G1 X125.518 Y83.068 E47.84989
G1 X126.511 Y83.732 E47.90948
G1 X127.264 Y84.678 E47.96980
G1 X127.785 Y85.800 E48.03152
G1 X127.898 Y86.783 E48.08089
G1 X127.899 Y110.451 E49.26169
G1 X127.898 Y113.219 E49.39978
G1 X127.785 Y114.200 E49.44905
G1 X127.264 Y115.321 E49.51072
G1 X126.509 Y116.269 E49.57118
G1 X125.522 Y116.927 E49.63037
G1 X124.338 Y117.387 E49.69374
G1 X81.108 Y117.399 E51.85049
G1 X76.335 Y117.398 E52.08862
G1 X75.488 Y117.325 E52.13103
G1 X74.947 Y117.109 E52.16009
G1 X74.529 Y116.963 E52.18218
G1 X73.475 Y116.258 E52.24544
G1 X73.059 Y115.727 E52.27910
G1 X72.767 Y115.369 E52.30215
G1 X72.533 Y114.889 E52.32879
G1 X72.216 Y114.194 E52.36690
G1 X72.102 Y113.241 E52.41478
G1 X72.100 Y89.549 E53.59678
G1 X72.101 Y86.782 E53.73483
G1 X72.214 Y85.800 E53.78414
G1 X72.749 Y84.647 E53.84756
G1 X73.572 Y83.651 E53.91202
G0 F9000 X73.839 Y83.956
G1 F1800 X74.706 Y83.413 E53.96305
G1 X75.591 Y83.067 E54.01046
G1 X76.353 Y83.001 E54.04862
G1 X123.648 Y83.001 E56.40818
G1 X124.397 Y83.066 E56.44569
G1 X125.332 Y83.425 E56.49565
G1 X126.237 Y84.030 E56.54996
G1 X126.922 Y84.890 E56.60482
G1 X127.395 Y85.910 E56.66091
G1 X127.498 Y86.806 E56.70591
G1 X127.499 Y110.451 E57.88556
G1 X127.498 Y113.196 E58.02251
G1 X127.395 Y114.090 E58.06741
G1 X126.922 Y115.109 E58.12345
G1 X126.235 Y115.971 E58.17845
G1 X125.337 Y116.570 E58.23230
G1 X124.263 Y116.987 E58.28978
G1 X81.108 Y116.999 E60.44279
G1 X76.353 Y116.998 E60.68002
G1 X75.581 Y116.931 E60.71868
G1 X75.087 Y116.735 E60.74519
G1 X74.709 Y116.602 E60.76519
G1 X73.751 Y115.961 E60.82269
G1 X73.398 Y115.511 E60.85123
G1 X73.106 Y115.152 E60.87431
G1 X72.894 Y114.718 E60.89841
G1 X72.606 Y114.084 E60.93315
G1 X72.502 Y113.217 E60.97672
G1 X72.500 Y89.549 E62.15752
G1 X72.501 Y86.805 E62.29442
G1 X72.604 Y85.910 E62.33936
G1 X73.090 Y84.862 E62.39700
G1 X73.839 Y83.956 E62.45564
G0 F9000 X74.106 Y84.261
G1 F1800 X74.886 Y83.772 E62.50157
G1 X75.683 Y83.461 E62.54426
G1 X76.370 Y83.401 E62.57866
G1 X123.631 Y83.401 E64.93652
G1 X124.307 Y83.460 E64.97038
G1 X125.147 Y83.782 E65.01526
G1 X125.963 Y84.328 E65.06424
G1 X126.579 Y85.101 E65.11355
G1 X127.005 Y86.020 E65.16409
G1 X127.098 Y86.829 E65.20471
G1 X127.099 Y110.451 E66.38322
G1 X127.098 Y113.173 E66.51902
G1 X127.005 Y113.980 E66.55955
G1 X126.579 Y114.898 E66.61004
G1 X125.961 Y115.673 E66.65949
G1 X125.151 Y116.213 E66.70806
G1 X124.188 Y116.587 E66.75960
G1 X81.108 Y116.599 E68.90887
G1 X76.370 Y116.598 E69.14525
G1 X75.674 Y116.538 E69.18010
G1 X75.246 Y116.367 E69.20310
G1 X74.889 Y116.242 E69.22197
G1 X74.026 Y115.664 E69.27379
G1 X73.708 Y115.258 E69.29952
G1 X73.446 Y114.936 E69.32023
G1 X73.256 Y114.547 E69.34183
G1 X72.996 Y113.975 E69.37317
G1 X72.902 Y113.193 E69.41247
G1 X72.900 Y89.550 E70.59202
G1 X72.901 Y86.828 E70.72782
G1 X72.994 Y86.020 E70.76840
G1 X73.431 Y85.077 E70.82025
G1 X74.106 Y84.261 E70.87309
G0 F9000 X74.373 Y84.565
G1 F1800 X75.067 Y84.131 E70.91392
G1 X75.775 Y83.854 E70.95185
G1 X76.388 Y83.801 E70.98255
G1 X123.614 Y83.801 E73.33867
G1 X124.216 Y83.854 E73.36882
G1 X124.962 Y84.140 E73.40868
G1 X125.688 Y84.626 E73.45226
G1 X126.236 Y85.313 E73.49611
G1 X126.615 Y86.130 E73.54104
G1 X126.698 Y86.851 E73.57725
G1 X126.699 Y110.450 E74.75461
G1 X126.698 Y113.150 E74.88931
G1 X126.615 Y113.870 E74.92547
G1 X126.236 Y114.686 E74.97035
G1 X125.687 Y115.375 E75.01431
G1 X124.966 Y115.856 E75.05755
G1 X124.113 Y116.187 E75.10320
G1 X81.108 Y116.199 E77.24872
G1 X76.387 Y116.198 E77.48426
G1 X75.767 Y116.144 E77.51530
G1 X75.368 Y115.986 E77.53671
G1 X75.069 Y115.881 E77.55252
G1 X74.302 Y115.367 E77.59859
G1 X74.018 Y115.005 E77.62154
G1 X73.785 Y114.719 E77.63995
G1 X73.618 Y114.377 E77.65894
G1 X73.385 Y113.866 E77.68695
G1 X73.302 Y113.169 E77.72197
G1 X73.300 Y89.550 E78.90033
G1 X73.301 Y86.851 E79.03498
G1 X73.384 Y86.130 E79.07119
G1 X73.773 Y85.292 E79.11729
G1 X74.373 Y84.565 E79.16431
G0 F9000 X75.247 Y84.490
G1 F1800 X75.867 Y84.248 E79.19752
G1 X76.405 Y84.201 E79.22446
G1 X123.596 Y84.201 E81.57883
G1 X124.125 Y84.247 E81.60532
G1 X124.777 Y84.497 E81.64016
G1 X125.414 Y84.924 E81.67842
G1 X125.894 Y85.525 E81.71679
G1 X126.225 Y86.239 E81.75605
G1 X126.298 Y86.874 E81.78794
G1 X126.298 Y113.126 E83.09766
G1 X126.225 Y113.760 E83.12950
G1 X125.894 Y114.474 E83.16876
G1 X125.413 Y115.077 E83.20725
G1 X124.780 Y115.499 E83.24520
G1 X124.038 Y115.787 E83.28491
G1 X81.108 Y115.799 E85.42670
G1 X76.405 Y115.798 E85.66133
G1 X75.861 Y115.751 E85.68857
G1 X75.507 Y115.610 E85.70758
G1 X75.249 Y115.520 E85.72122
G1 X74.577 Y115.070 E85.76156
G1 X74.328 Y114.753 E85.78167
G1 X74.124 Y114.502 E85.79781
G1 X73.980 Y114.206 E85.81423
G1 X73.775 Y113.757 E85.83886
G1 X73.702 Y113.145 E85.86961
G1 X73.700 Y89.550 E87.04677
G1 X73.701 Y86.874 E87.18027
G1 X73.774 Y86.239 E87.21216
G1 X74.114 Y85.507 E87.25243
G1 X74.640 Y84.870 E87.29364
G1 X75.247 Y84.490 E87.32937
G0 F9000 X75.428 Y84.849
G1 F1800 X75.959 Y84.641 E87.35782
G1 X76.422 Y84.601 E87.38101
G1 X123.579 Y84.601 E89.73368
G1 X124.034 Y84.641 E89.75647
G1 X124.592 Y84.855 E89.78628
G1 X125.140 Y85.221 E89.81916
G1 X125.551 Y85.737 E89.85207
G1 X125.835 Y86.349 E89.88573
G1 X125.898 Y86.897 E89.91325
G1 X125.898 Y113.103 E91.22068
G1 X125.835 Y113.651 E91.24820
G1 X125.551 Y114.262 E91.28181
G1 X125.139 Y114.779 E91.31479
G1 X124.595 Y115.142 E91.34742
G1 X123.963 Y115.387 E91.38124
G1 X76.422 Y115.398 E93.75307
G1 X75.954 Y115.357 E93.77650
G1 X75.666 Y115.242 E93.79198
G1 X75.429 Y115.159 E93.80450
G1 X74.852 Y114.773 E93.83914
G1 X74.617 Y114.473 E93.85815
G1 X74.463 Y114.285 E93.87028
G1 X74.342 Y114.036 E93.88409
G1 X74.165 Y113.648 E93.90536
G1 X74.102 Y113.121 E93.93184
G1 X74.101 Y86.897 E95.24016
G1 X74.164 Y86.349 E95.26768
G1 X74.455 Y85.722 E95.30217
G1 X74.907 Y85.175 E95.33757
G1 X75.428 Y84.849 E95.36823
G0 F9000 X75.608 Y85.208
G1 F1800 X76.051 Y85.035 E95.39196
G1 X76.439 Y85.001 E95.41139
G1 X123.561 Y85.001 E97.76232
G1 X123.944 Y85.034 E97.78150
G1 X124.407 Y85.212 E97.80624
G1 X124.866 Y85.519 E97.83379
G1 X125.208 Y85.949 E97.86120
G1 X125.445 Y86.459 E97.88926
G1 X125.498 Y86.920 E97.91241
G1 X125.498 Y113.080 E99.21754
G1 X125.445 Y113.541 E99.24069
G1 X125.208 Y114.050 E99.26870
G1 X124.866 Y114.481 E99.29615
G1 X124.409 Y114.785 E99.32354
G1 X123.888 Y114.987 E99.35141
G1 X76.440 Y114.998 E101.71860
G1 X76.047 Y114.964 E101.73828
G1 X75.774 Y114.856 E101.75293
G1 X75.610 Y114.799 E101.76159
G1 X75.128 Y114.476 E101.79054
G1 X74.932 Y114.227 E101.80635
G1 X74.803 Y114.068 E101.81657
G1 X74.704 Y113.865 E101.82783
G1 X74.555 Y113.538 E101.84576
G1 X74.502 Y113.098 E101.86787
G1 X74.501 Y86.920 E103.17390
G1 X74.554 Y86.459 E103.19705
G1 X74.796 Y85.937 E103.22575
G1 X75.174 Y85.480 E103.25534
G1 X75.608 Y85.208 E103.28090
G0 F9000 X75.789 Y85.567
G1 F1800 X76.143 Y85.428 E103.29987
G1 X76.457 Y85.401 E103.31559
G1 X123.544 Y85.401 E105.66477
G1 X123.853 Y85.428 E105.68025
G1 X124.222 Y85.569 E105.69995
G1 X124.592 Y85.817 E105.72218
G1 X124.866 Y86.160 E105.74408
G1 X125.055 Y86.569 E105.76656
G1 X125.098 Y86.943 E105.78534
G1 X125.098 Y113.057 E107.08817
G1 X125.055 Y113.431 E107.10695
G1 X124.866 Y113.839 E107.12939
G1 X124.592 Y114.182 E107.15129
G1 X124.224 Y114.428 E107.17337
G1 X123.813 Y114.587 E107.19536
G1 X76.457 Y114.598 E109.55796
G1 X76.140 Y114.571 E109.57383
G1 X75.930 Y114.487 E109.58512
G1 X75.790 Y114.438 E109.59252
G1 X75.403 Y114.179 E109.61575
G1 X75.247 Y113.980 E109.62836
G1 X75.142 Y113.851 E109.63666
G1 X75.065 Y113.694 E109.64539
G1 X74.945 Y113.429 E109.65990
G1 X74.902 Y113.074 E109.67774
G1 X74.901 Y86.943 E110.98142
G1 X74.944 Y86.569 E111.00020
G1 X75.137 Y86.152 E111.02313
G1 X75.441 Y85.784 E111.04694
G1 X75.789 Y85.567 E111.06740
G0 F9000 X76.474 Y85.801
G1 F1800 X123.526 Y85.801 E113.41484
G1 X123.762 Y85.822 E113.42666
G1 X124.037 Y85.927 E113.44134
G1 X124.318 Y86.115 E113.45821
G1 X124.523 Y86.372 E113.47461
G1 X124.665 Y86.678 E113.49144
G1 X124.698 Y86.966 E113.50590
G1 X124.698 Y113.034 E114.80644
G1 X124.665 Y113.321 E114.82085
G1 X124.523 Y113.627 E114.83768
G1 X124.318 Y113.884 E114.85408
G1 X124.038 Y114.071 E114.87088
G1 X123.738 Y114.187 E114.88693
G1 X76.474 Y114.198 E117.24494
G1 X76.233 Y114.177 E117.25701
G1 X76.070 Y114.112 E117.26576
G1 X75.970 Y114.077 E117.27105
G1 X75.679 Y113.882 E117.28853
G1 X75.562 Y113.733 E117.29798
G1 X75.481 Y113.634 E117.30436
G1 X75.427 Y113.524 E117.31047
G1 X75.334 Y113.320 E117.32166
G1 X75.302 Y113.050 E117.33522
G1 X75.301 Y86.966 E118.63656
G1 X75.334 Y86.678 E118.65102
G1 X75.478 Y86.367 E118.66812
G1 X75.708 Y86.089 E118.68612
G1 X75.969 Y85.926 E118.70147
G1 X76.235 Y85.822 E118.71572
G1 X76.474 Y85.801 E118.72769
G0 F9000 X76.491 Y86.201
G1 F1800 X123.509 Y86.201 E121.07343
G1 X123.671 Y86.215 E121.08154
G1 X123.852 Y86.284 E121.09121
G1 X124.044 Y86.413 E121.10275
G1 X124.180 Y86.584 E121.11365
G1 X124.275 Y86.788 E121.12487
G1 X124.298 Y86.989 E121.13497
G1 X124.298 Y113.011 E122.43321
G1 X124.275 Y113.211 E122.44325
G1 X124.180 Y113.415 E122.45448
G1 X124.044 Y113.586 E122.46538
G1 X123.853 Y113.714 E122.47685
G1 X123.663 Y113.787 E122.48701
G1 X76.491 Y113.798 E124.84043
G1 X76.326 Y113.784 E124.84869
G1 X76.206 Y113.736 E124.85514
G1 X76.150 Y113.716 E124.85810
G1 X75.954 Y113.585 E124.86986
G1 X75.877 Y113.486 E124.87612
G1 X75.820 Y113.417 E124.88059
G1 X75.789 Y113.353 E124.88413
G1 X75.724 Y113.211 E124.89193
G1 X75.702 Y113.026 E124.90122
G1 X75.701 Y86.989 E126.20021
G1 X75.724 Y86.788 E126.21031
G1 X75.819 Y86.582 E126.22162
G1 X75.975 Y86.394 E126.23381
G1 X76.150 Y86.285 E126.24410
G1 X76.327 Y86.215 E126.25359
G1 X76.491 Y86.201 E126.26180
G0 F9000 X85.700 Y100.200
G1 F1800 X85.700 Y107.800 E126.64097
G1 X114.300 Y107.800 E128.06783
G1 X114.300 Y100.200 E128.44700
G1 X85.700 Y100.200 E129.87386
G0 F9000 X86.100 Y100.600
G1 F1800 X86.100 Y107.400 E130.21311
G1 X113.900 Y107.400 E131.60006
G1 X113.900 Y100.600 E131.93931
G1 X86.100 Y100.600 E133.32626
G0 F9000 X86.500 Y101.000
G1 F1800 X86.500 Y107.000 E133.62560
G1 X113.500 Y107.000 E134.97263
G1 X113.500 Y101.000 E135.27198
G1 X86.500 Y101.000 E136.61901
G0 F9000 X86.900 Y101.400
G1 F1800 X86.900 Y106.600 E136.87844
G1 X113.100 Y106.600 E138.18556
